X: 25726
T: Mary Grace
R: reel
M: 4/4
K: Adorian
cA~A2 EA~A2|BGdG BG~G2|cA~A2 EA~A2|cded cA~A2|
cA~A2 EA~A2|BGdG BG~G2|AGAB cBcd|egdB cA~A2||
(3Bcd ef ~g3d|BG~G2 DG~G2|(3Bcd ef g2fg|egdB cA~A2|
(3Bcd ef ~g3d|BG~G2 DG~G2|(3Bcd ef g2fg|~a3f gfed||

